X:1
T:The Rabbi's Daughter
M:2/4
L:1/8
K:G
 D2| BB AG| B D2 D/2D/2| EB AB| A3 B| BB AG| B D2 D| EB AB| A2 z B/2B/2|\
 BB AG| G F2 G| AA GF| G2 z G| GG FG| B D2 c/2c/2| BG A3/2 G/2| G2||\
